src/assets/images/navigation-home.svg

<svg fill="none" height="20" viewBox="0 0 20 20" width="20" xmlns="http://www.w3.org/2000/svg"><g fill="#000"><path d="m3.29685 9.81219c.32484 0 .57641.25041.57641.57681v7.8793h4.08743v-3.2174c0-.3019.25154-.5657.55562-.5657h2.95539c.3251 0 .5869.2638.5869.5657v3.2174h4.0772v-7.6177c0-.3041.2513-.5567.5764-.5567.3038 0 .5554.2526.5554.5567v8.1946c0 .304-.2516.5567-.5554.5567h-5.2405c-.3038 0-.5554-.2527-.5554-.5567v-3.2175h-1.82355v3.2175c0 .304-.25154.5567-.57644.5567h-5.21946c-.30389 0-.55539-.2527-.55539-.5567v-8.4561c0-.3264.2515-.57691.55539-.57691z"/><path d="m.163209 10.2616 4.548521-4.56795v-3.11458c0-.32422.26206-.57461.58693-.57461.30408 0 .55559.25043.55559.57461v1.97206l3.75204-3.774188c.11497-.116275.25154-.178889.38772-.178889.15719 0 .29359.064837.40869.178889l9.4221 9.422058c.2261.2258.241.588 0 .7959-.2095.2415-.5704.2259-.7964 0l-9.03439-9.01283-9.013347 9.09783c-.093889.0939-.230523.1476-.408726.1476-.15719 0-.293335-.0537-.408728-.1476-.209707-.2102-.2253607-.5903 0-.8183z"/></g></svg>

<svg width="20" height="20" viewBox="0 0 20 20" fill="none"
  xmlns="http://www.w3.org/2000/svg">
  <path d="M3.29685 9.81219C3.62169 9.81219 3.87326 10.0626 3.87326 10.389V18.2683H7.96069V15.0509C7.96069 14.749 8.21223 14.4852 8.51631 14.4852H11.4717C11.7968 14.4852 12.0586 14.749 12.0586 15.0509V18.2683H16.1358V10.6506C16.1358 10.3465 16.3871 10.0939 16.7122 10.0939C17.016 10.0939 17.2676 10.3465 17.2676 10.6506V18.8452C17.2676 19.1492 17.016 19.4019 16.7122 19.4019H11.4717C11.1679 19.4019 10.9163 19.1492 10.9163 18.8452V15.6277H9.09275V18.8452C9.09275 19.1492 8.84121 19.4019 8.51631 19.4019H3.29685C2.99296 19.4019 2.74146 19.1492 2.74146 18.8452V10.3891C2.74146 10.0627 2.99296 9.81219 3.29685 9.81219Z" fill="black"/>
  <path d="M0.163209 10.2616L4.71173 5.69365V2.57907C4.71173 2.25485 4.97379 2.00446 5.29866 2.00446C5.60274 2.00446 5.85425 2.25489 5.85425 2.57907V4.55113L9.60629 0.776942C9.72126 0.660667 9.85783 0.598053 9.99401 0.598053C10.1512 0.598053 10.2876 0.66289 10.4027 0.776942L19.8248 10.199C20.0509 10.4248 20.0658 10.787 19.8248 10.9949C19.6153 11.2364 19.2544 11.2208 19.0284 10.9949L9.99401 1.98207L0.980663 11.0799C0.886774 11.1738 0.75014 11.2275 0.571937 11.2275C0.414747 11.2275 0.278602 11.1738 0.163209 11.0799C-0.046498 10.8697 -0.0621517 10.4896 0.163209 10.2616Z" fill="black"/>
</svg>
